X:1
T:Dolce vaga pastorella
T:Luca Marenzio
T:Source : Il secondo Libre delle canzonette alla Napolitana a tre voci---Venetia---G.Visconti---1587. Editor : André Vierendeels (04/05/17). 
T:Notes : Original clefs : G2, C1, F3 Editorial accidentals above the staff "Seconda impressione" Music collected by Attilio Gualtieri 
T:Dolce vaga pastorella
T:©
T:©
C:Luca Marenzio
Z:©
%%score [ 1 2 3 ]
L:1/8
Q:1/4=120
M:4/4
K:F
V:1 treble nm="Soprano 1" snm="S 1"
V:2 treble nm="Soprano 2" snm="S 2"
V:3 treble-8 nm="Tenor" snm="T"
V:1
"^1)" G8- | G4 A4 | B8 | A2 B4 c2 | d4 d4 | z2 de f2 e2 | g2 f2 e4 |[M:2/4] d4 :: A2 B2 | %9
w: Dol-|* ce|va-|ga pa- sto-|rel- la,|se- te cru- da'e|se- te bel-|la,|e chi|
w: Gli'oc|_ ch'il|vol-|to'il ri- so'il|can- to,|e'il par- lar so-|a- ve tan-|to,|son ca-|
[M:4/4] c3 B c2 d2 | c8 | c4 d2 e2 | f3 f f2 e2 | d8 | d2 gf e2 f2 | d3 d c2 A=B | c2 d2 d3 d | %17
w: v'a- ma'e chi v'a-|do-|ra, de- si-|a- te pur che|mo-|ra, v'a- me- ro e|se- gui- ro, per voi|cer- to mo- ri-|
w: gion che'il mi- ser|co-|re, si dis-|tem- pri'a tut- te|l'ho-|re, v'a- me- ro e|se- gui- ro per voi|cer- to mo- ri-|
 c8 :| %18
w: ro.|
w: ro.|
V:2
"^2)""^1)" E8- | E4 ^F4 | G8 | ^F2 G4 A2 | B4 B4 | z2 Bc d2 c2 | B2 d2 ^c4 |[M:2/4] d4 :: ^F2 G2 | %9
w: Dol-|* ce|va-|ga pa- sto-|rel- la,|se- te cru- da'e|se- te bel-|la,|e chi|
w: Que-|* sti|bos-|chi'e col- li|san- no,|se per voi vi-|vo'in af- fan-|no,|e gli'ar-|
[M:4/4] A3 G A2 B2 | A8 | A4 =B2 c2 | d3 c d2 c2 | =B8 | =B2 cd c2 A2 | =B3 B c2 FG | A2 =B2 B3 B | %17
w: v'a- ma'e chi v'a-|do-|ra, de- si-|a- te pur che|mo-|ra, v'a- me- ro e|se- gui- ro, per voi|cer- to mo- ri-|
w: den- ti miei so-|spi-|ri, fan- no|fè de miei mar-|ti-|ri, v'a- me- ro e|se- gui- ro, per voi|cer- to mo- ri-|
 c8 :| %18
w: ro.|
w: ro.|
V:3
"^3)""^1)""^4)" c8- | c4 A4 | G8 |"^-natural" D2 G4 F2 | B4 B2 GA | B6 c2 | G2 D2 A4 |[M:2/4] D4 :: %8
w: Dol-|* ce|va-|ga pa- sto-|rel- la, se- te|cru- da'e|se- te bel-|la,|
w: Vi-|* ta|mia|ho- mai pie-|ta- te, e non|tan- ta|cru- del- ta-|te,|
 D2 G2 |[M:4/4]"^-natural" F3 G F2 B,2 | F8 | F4 G2 c2 |"^b" B3 A B2 c2 | G8 |"^b" G2 cB A2 F2 | %15
w: e chi|v'a- ma'e chi v'a-|do-|ra, de- si-|a- te pur che|mo-|ra, v'a- me- ro e|
w: e por-|ge- te'al- cu- n'a-|i-|ta, al mio|cor dol- ce mia|vi-|ta, v'a- me- ro e|
 G3 G C2 DE | F2 G2 G3 G | C8 :| %18
w: se- gui- ro, per voi|cer- to mo- ri-|ro.|
w: se- gui- ro, per voi|cer- to mo- ri-|ro.|

